dist/images/logo_cbs.svg

<svg width="73" height="36" viewBox="0 0 73 36" fill="none" xmlns="http://www.w3.org/2000/svg">
<g clip-path="url(#clip0)">
<path fill-rule="evenodd" clip-rule="evenodd" d="M62.5961 6.00488C56.8498 6.00488 52.1909 10.8782 52.1909 16.8901C52.1909 22.9019 56.8494 27.7753 62.5961 27.7753C68.3428 27.7753 73.0013 22.9019 73.0013 16.8901C73.0013 10.8782 68.3428 6.00488 62.5961 6.00488ZM62.5961 23.2843C58.323 23.2655 54.8484 20.3304 53.0093 16.8121C54.8667 13.3131 58.3597 10.4755 62.5961 10.4755C66.9067 10.4755 70.3622 13.2939 72.183 16.8121C70.3622 20.3304 66.9441 23.3039 62.5961 23.2843Z" fill="#272727"/>
<path fill-rule="evenodd" clip-rule="evenodd" d="M62.5974 22.6626C65.6445 22.6626 68.1148 20.078 68.1148 16.8903C68.1148 13.7022 65.6449 11.118 62.5974 11.118C59.5499 11.118 57.0796 13.7022 57.0796 16.8903C57.0796 20.078 59.5502 22.6626 62.5974 22.6626ZM17.2749 6.58331H26.5833C30.5369 6.58331 33.2896 9.12262 33.2896 11.7137C33.2896 13.6508 32.589 15.4833 28.6853 16.3733C30.1867 16.5826 34.2905 17.7342 34.2905 21.8179C34.2905 25.9017 29.9866 27.8914 27.0338 27.8914H17.2749V27.6816H26.9336C29.2357 27.6816 30.6871 26.6868 30.6871 22.1321C30.6871 17.5771 29.0855 16.53 27.0837 16.4778H24.0811V16.2688H27.2589C28.5601 16.2688 29.9362 16.0595 29.9362 11.6615C29.9362 7.26353 28.2847 6.79223 26.533 6.79223H24.0807V27.6816H20.3771V6.79264H17.2742V6.58331H17.2749ZM4.13154 17.371C4.13154 9.30828 6.38334 6.42906 9.03574 6.42906C12.7893 6.42906 14.841 12.2405 15.4916 14.4918V6.69063C14.841 7.21416 14.5406 7.47612 13.8401 7.47612C13.1395 7.47612 12.0883 7.10969 11.5879 6.79549C11.0874 6.48129 10.0866 6.21973 9.08567 6.21973C5.78265 6.21973 0.0273438 10.7744 0.0273438 17.371C0.0273438 25.1717 5.13204 28.5226 9.08567 28.5226C10.0866 28.5226 11.1877 28.104 11.6881 27.7894C12.1886 27.4752 13.1395 27.0565 13.8401 27.0565C14.5406 27.0565 14.841 27.3185 15.4916 27.842V19.9886C14.9408 23.0254 12.7893 28.3129 9.03574 28.3129C7.95996 28.3129 6.48359 27.7894 5.80801 27.0565C5.60011 26.8309 4.13154 25.7471 4.13154 17.371ZM47.6258 23.6987C47.5762 25.4263 46.3245 27.7302 43.7221 27.6776C41.1196 27.6253 37.9671 25.5834 36.7658 20.0862V27.5205C37.2662 27.0496 38.1173 26.2118 39.4689 26.8398C40.8196 27.4682 42.8218 27.8869 43.7221 27.8869C44.6235 27.8869 49.5776 26.8921 49.7777 20.9239C49.828 17.9398 47.7756 16.4214 46.5246 15.9501C45.0732 15.374 43.0219 14.6938 41.8201 14.2747C40.6195 13.856 38.6677 12.5474 38.7172 10.1387C38.7675 7.73034 40.1686 6.42172 42.0709 6.42172C43.9725 6.42172 46.5246 7.99231 47.8259 13.5418V6.16016C47.0754 6.84079 46.4743 7.15499 46.0242 7.15499C45.6244 7.15499 44.4608 6.67716 43.8726 6.48741C43.222 6.27808 42.5835 6.19933 41.7698 6.21279C40.3438 6.23565 36.9908 8.04495 36.7654 12.9142C36.6012 16.4716 39.1178 17.8358 40.2689 18.254C41.2698 18.6204 44.1726 19.7201 45.0229 20.0866C45.8744 20.4526 47.7264 21.7094 47.6258 23.6987Z" fill="#272727"/>
</g>
<defs>
<clipPath id="clip0">
<rect width="73" height="36" fill="white"/>
</clipPath>
</defs>
</svg>

<svg width="73" height="36" viewBox="0 0 73 36" fill="none" xmlns="http://www.w3.org/2000/svg"><g clip-path="url(#a)" fill-rule="evenodd" clip-rule="evenodd" fill="#272727"><path d="M62.596 6.005c-5.746 0-10.405 4.873-10.405 10.885s4.658 10.885 10.405 10.885c5.747 0 10.405-4.873 10.405-10.885S68.343 6.005 62.596 6.005zm0 17.28c-4.273-.02-7.748-2.955-9.587-6.473 1.858-3.499 5.35-6.337 9.587-6.337 4.31 0 7.766 2.819 9.587 6.337-1.82 3.518-5.239 6.492-9.587 6.472z"/><path d="M62.597 22.663c3.047 0 5.518-2.585 5.518-5.773 0-3.188-2.47-5.772-5.518-5.772-3.047 0-5.517 2.584-5.517 5.772s2.47 5.773 5.517 5.773zM17.275 6.583h9.308c3.954 0 6.707 2.54 6.707 5.13 0 1.938-.701 3.77-4.605 4.66 1.502.21 5.606 1.361 5.606 5.445 0 4.084-4.304 6.073-7.257 6.073h-9.76v-.21h9.66c2.302 0 3.753-.994 3.753-5.549 0-4.555-1.602-5.602-3.603-5.654H24.08v-.21h3.178c1.301 0 2.677-.209 2.677-4.607 0-4.397-1.651-4.869-3.403-4.869h-2.452v20.89h-3.704V6.792h-3.103v-.209zM4.132 17.371c0-8.063 2.251-10.942 4.904-10.942 3.753 0 5.805 5.812 6.456 8.063V6.69c-.651.523-.951.785-1.652.785-.7 0-1.752-.366-2.252-.68-.5-.315-1.501-.576-2.502-.576C5.783 6.22.027 10.774.027 17.37c0 7.8 5.105 11.152 9.059 11.152 1 0 2.102-.419 2.602-.734.5-.314 1.451-.733 2.152-.733.7 0 1.001.262 1.652.786v-7.853c-.551 3.036-2.703 8.324-6.456 8.324-1.076 0-2.552-.524-3.228-1.256-.208-.226-1.676-1.31-1.676-9.686zm43.494 6.328c-.05 1.727-1.301 4.031-3.904 3.979-2.602-.053-5.755-2.095-6.956-7.592v7.434c.5-.47 1.351-1.308 2.703-.68 1.35.628 3.353 1.047 4.253 1.047.901 0 5.856-.995 6.056-6.963a5.119 5.119 0 0 0-3.253-4.974c-1.452-.576-3.503-1.256-4.705-1.675-1.2-.419-3.152-1.728-3.103-4.136.05-2.409 1.452-3.717 3.354-3.717 1.901 0 4.454 1.57 5.755 7.12V6.16c-.75.68-1.352.995-1.802.995-.4 0-1.563-.478-2.151-.668-.651-.209-1.29-.288-2.103-.274-1.426.023-4.78 1.832-5.005 6.701-.164 3.558 2.353 4.922 3.504 5.34 1 .366 3.904 1.466 4.754 1.833.851.366 2.703 1.622 2.603 3.612z"/></g><defs><clipPath id="a"><path fill="#fff" d="M0 0h73v36H0z"/></clipPath></defs></svg>
